svg/UnitedNations-Flags/flag-bi.svg

<svg height="256" viewBox="-125 -75 250 150" width="256" xmlns="http://www.w3.org/2000/svg" xmlns:xlink="http://www.w3.org/1999/xlink"><defs><g id="1"><g id="2"><g id="3"><path d="m0 0v10h10" id="4" transform="matrix(.86603.5-.5.86603 0-10)"/><use height="150" transform="scale(-1 1)" width="250" xlink:href="#4"/></g><use height="150" transform="matrix(-.5.86603-.86603-.5 0 0)" width="250" xlink:href="#3"/><use height="150" transform="matrix(-.5-.86603.86603-.5 0 0)" width="250" xlink:href="#3"/></g><use height="150" transform="scale(-1-1)" width="250" xlink:href="#2"/></g><clipPath id="0"><path d="m-125-75h250v150h-250z"/></clipPath></defs><path d="m0 0l-125-75h250l-125 75m0 0l125 75h-250l125-75" fill="#ce1126"/><path d="m0 0l-125-75v150l125-75m0 0l125 75v-150l-125 75" fill="#1eb53a"/><g clip-path="url(#0)" stroke="#fff" stroke-width="20"><path d="m-150-90l300 180"/><path d="m-150 90l300-180"/></g><circle r="42.5" fill="#fff"/><g fill="#1eb53a"><use height="150" transform="translate(0-22)" width="250" xlink:href="#1"/><use height="150" transform="matrix(-.5.86603-.86603-.5 19.05 11)" width="250" xlink:href="#1"/><use height="150" transform="matrix(-.5-.86603.86603-.5-19.05 11)" width="250" xlink:href="#1"/></g><g fill="#ce1126"><use height="150" transform="matrix(.82 0 0 .82 0-22)" width="250" xlink:href="#1"/><use height="150" transform="matrix(-.41.71014-.71014-.41 19.05 11)" width="250" xlink:href="#1"/><use height="150" transform="matrix(-.41-.71014.71014-.41-19.05 11)" width="250" xlink:href="#1"/></g></svg>

<?xml version="1.0" encoding="UTF-8" standalone="no"?>
<svg height="256" id="svg2692" inkscape:output_extension="org.inkscape.output.svg.inkscape" inkscape:version="0.46" sodipodi:docname="Flag_of_Burundi.svg" sodipodi:version="0.32" version="1.0" viewBox="-125 -75 250 150" width="256" xmlns="http://www.w3.org/2000/svg" xmlns:cc="http://creativecommons.org/ns#" xmlns:dc="http://purl.org/dc/elements/1.1/" xmlns:inkscape="http://www.inkscape.org/namespaces/inkscape" xmlns:rdf="http://www.w3.org/1999/02/22-rdf-syntax-ns#" xmlns:sodipodi="http://sodipodi.sourceforge.net/DTD/sodipodi-0.dtd" xmlns:svg="http://www.w3.org/2000/svg" xmlns:xlink="http://www.w3.org/1999/xlink">
  <metadata>
    <rdf:RDF xmlns:cc="http://web.resource.org/cc/" xmlns:dc="http://purl.org/dc/elements/1.1/" xmlns:rdf="http://www.w3.org/1999/02/22-rdf-syntax-ns#">
      <cc:Work rdf:about="">
        <dc:title></dc:title>
        <dc:description></dc:description>
        <dc:subject>
          <rdf:Bag>
            <rdf:li>unsorted</rdf:li>
          </rdf:Bag>
        </dc:subject>
        <dc:publisher>
          <cc:Agent rdf:about="http://www.openclipart.org/">
            <dc:title>Open Clip Art Library, Source: Wikimedia Commons, Source: Wikimedia Commons, Source: Wikimedia Commons, Source: Wikimedia Commons</dc:title>
          </cc:Agent>
        </dc:publisher>
        <dc:creator>
          <cc:Agent>
            <dc:title></dc:title>
          </cc:Agent>
        </dc:creator>
        <dc:rights>
          <cc:Agent>
            <dc:title></dc:title>
          </cc:Agent>
        </dc:rights>
        <dc:date></dc:date>
        <dc:format>image/svg+xml</dc:format>
        <dc:type rdf:resource="http://purl.org/dc/dcmitype/StillImage"/>
        <cc:license rdf:resource="http://en.wikipedia.org/wiki/Public_domain"/>
        <dc:language>en</dc:language>
      </cc:Work>
    </rdf:RDF>
  </metadata>
  <sodipodi:namedview bordercolor="#666666" borderopacity="1.0" gridtolerance="10.0" guidetolerance="10.0" id="base" inkscape:current-layer="svg2692" inkscape:cx="400" inkscape:cy="240" inkscape:pageopacity="0.0" inkscape:pageshadow="2" inkscape:window-height="674" inkscape:window-width="640" inkscape:window-x="91" inkscape:window-y="129" inkscape:zoom="0.69875" objecttolerance="10.0" pagecolor="#ffffff" showgrid="false"/>
  <defs id="defs2694">
    <inkscape:perspective id="perspective2744" inkscape:persp3d-origin="400 : 160 : 1" inkscape:vp_x="0 : 240 : 1" inkscape:vp_y="0 : 1000 : 0" inkscape:vp_z="800 : 240 : 1" sodipodi:type="inkscape:persp3d"/>
    <clipPath id="frame">
      <rect height="150" id="rect2697" width="250" x="-125" y="-75"/>
    </clipPath>
    <g id="star">
      <g id="triangle">
        <g id="cone">
          <path d="M 0,0 L 0,10 L 10,10" id="helper" transform="matrix(0.8660254,0.5,-0.5,0.8660254,0,-10)"/>
          <use height="150" id="use2703" transform="scale(-1,1)" width="250" x="0" xlink:href="#helper" y="0"/>
        </g>
        <use height="150" id="use2705" transform="matrix(-0.5,0.8660254,-0.8660254,-0.5,0,0)" width="250" x="0" xlink:href="#cone" y="0"/>
        <use height="150" id="use2707" transform="matrix(-0.5,-0.8660254,0.8660254,-0.5,0,0)" width="250" x="0" xlink:href="#cone" y="0"/>
      </g>
      <use height="150" id="use2709" transform="scale(-1,-1)" width="250" x="0" xlink:href="#triangle" y="0"/>
    </g>
  </defs>
  <path d="M 0,0 L -125,-75 L 125,-75 L 0,0 z M 0,0 L 125,75 L -125,75 L 0,0 z" id="path2711" style="fill:#ce1126"/>
  <path d="M 0,0 L -125,-75 L -125,75 L 0,0 z M 0,0 L 125,75 L 125,-75 L 0,0 z" id="path2713" style="fill:#1eb53a"/>
  <g clip-path="url(#frame)" id="g2715" style="stroke:#ffffff;stroke-width:20">
    <line id="line2717" x1="-150" x2="150" y1="-90" y2="90"/>
    <line id="line2719" x1="-150" x2="150" y1="90" y2="-90"/>
  </g>
  <circle cx="0" cy="0" id="circle2721" r="42.5" sodipodi:cx="0" sodipodi:cy="0" sodipodi:rx="42.5" sodipodi:ry="42.5" style="fill:#ffffff"/>
  <g id="g2723" style="fill:#1eb53a">
    <use height="150" id="use2725" transform="translate(0,-22)" width="250" x="0" xlink:href="#star" y="0"/>
    <use height="150" id="use2727" transform="matrix(-0.5,0.8660254,-0.8660254,-0.5,19.052559,11)" width="250" x="0" xlink:href="#star" y="0"/>
    <use height="150" id="use2729" transform="matrix(-0.5,-0.8660254,0.8660254,-0.5,-19.052559,11)" width="250" x="0" xlink:href="#star" y="0"/>
  </g>
  <comment id="comment2731">The size of the red stars needs to be precisely 82% of the size of the green stars</comment>
  <g id="g2733" style="fill:#ce1126">
    <use height="150" id="use2735" transform="matrix(0.82,0,0,0.82,0,-22)" width="250" x="0" xlink:href="#star" y="0"/>
    <use height="150" id="use2737" transform="matrix(-0.41,0.7101408,-0.7101408,-0.41,19.052559,11)" width="250" x="0" xlink:href="#star" y="0"/>
    <use height="150" id="use2739" transform="matrix(-0.41,-0.7101408,0.7101408,-0.41,-19.052559,11)" width="250" x="0" xlink:href="#star" y="0"/>
  </g>
</svg>
